!!!OTL: Der goldene Rosenkranz
!!!OTL-incipit: Der goldene Rosenkranz versetzt mit Perlen ganz
!!!ARE: Europa, Mitteleuropa, Deutschland, Wolga - Kolonie
!!!SCT: D0148
!!!TXL: @@DE
!!!YEM: Copyright 1995, estate of Helmut Schaffrath.
**kern	**text
*ICvox	*
*M3/4	*
*k[b-e-a-]	*
*E-:	*
{4e-	Der
=1	=1
4g	gol-
4b-/	-de-
4g	-ne
=2	=2
(4f	Ro-
4e-)	.
4f	-sen-
=3	=3
[2.e-	-kranz
=4	=4
4e-]	.
4r}	.
{(8fL	ver-
8gJ)	.
=5	=5
(4a-	-setzt
4b-/)	.
4a-	mit
=6	=6
(4g	Per-
4a-)	.
4b-/	-len
=7	=7
[2.f	ganz.
=8	=8
4f]	.
4r}	.
{4f	ver-
=9	=9
(4b-	-setzt
4cc)	.
4b-	mit
=10	=10
2e-	lau-
(8fL	-ter
8gJ)	.
=11	=11
(4a-	E-
4b-/)	.
4g	-del-
=12	=12
2f}	-stein
{8a-L	er
8ccJ	ge-
=13	=13
4b-	-hö-
4a-	-ret
4g	der
=14	=14
(4f	Jung-
4g)	.
4f	-frau
=15	=15
[2.e-	rein.
=16	=16
4e-]	.
4r}	.
==	==
!!!AGN: geistliches Lied, Marien - Lied
!! Inzipit = entfernte Varianta zum Lied ??
!!!ONB: ESAC (Essen Associative Code) Database: DVA
!!!AMT: simple triple
!!!AIN: vox
!!!EED: Helmut Schaffrath
!!!EEV: 1.0
!!!YOR: https://freidok.uni-freiburg.de/data/150373
!!!EFL: A216388
!!!ENC: Anna Maria Matuszewska
!!!EEV: 2025/06/04
*-	*-
